build/images/icons/house.svg

<svg width="18" height="22" viewBox="0 0 18 22" fill="none" xmlns="http://www.w3.org/2000/svg">
<path d="M6.83333 13.3429C6.55719 13.3429 6.33333 13.5667 6.33333 13.8429V19.7C6.33333 19.9761 6.10948 20.2 5.83333 20.2H1.5C1.22386 20.2 1 19.9761 1 19.7V8.08711C1 7.94115 1.06378 7.80247 1.1746 7.70748L8.6746 1.27891C8.86185 1.11842 9.13815 1.11842 9.3254 1.27891L16.8254 7.70748C16.9362 7.80247 17 7.94115 17 8.08711V19.7C17 19.9761 16.7761 20.2 16.5 20.2H12.1667C11.8905 20.2 11.6667 19.9761 11.6667 19.7V13.8429C11.6667 13.5667 11.4428 13.3429 11.1667 13.3429H6.83333Z" stroke="#2F3035" stroke-width="2" stroke-linecap="round" stroke-linejoin="round"/>
</svg>

<svg width="18" height="22" fill="none" xmlns="http://www.w3.org/2000/svg"><path d="M6.833 13.343a.5.5 0 00-.5.5V19.7a.5.5 0 01-.5.5H1.5a.5.5 0 01-.5-.5V8.087a.5.5 0 01.175-.38l7.5-6.428a.5.5 0 01.65 0l7.5 6.428a.5.5 0 01.175.38V19.7a.5.5 0 01-.5.5h-4.333a.5.5 0 01-.5-.5v-5.857a.5.5 0 00-.5-.5H6.833z" stroke="#2F3035" stroke-width="2" stroke-linecap="round" stroke-linejoin="round"/></svg>
